X: 13118
T: Fireworks
R: reel
M: 4/4
K: Dmixolydian
|:DCDE FAFE|DCDE FAFE|DCDE FAFA|cAcA BGBG:|
|:dA2d A2ed|dA2d A2ed|Ad2A d2ed|cAcA BGBG:|
BABc d=fdc|BABd gdgd|BABc d=f2d|edec dcdc|
BABc d=fdc|BABc d=fdf|g3 g3 g2|g3 g3 g2:|

